X:1
T:Title
%%score { ( 1 4 ) | ( 2 3 ) }
L:1/8
M:4/4
K:Bb
V:1 treble nm="Grand Piano"
V:4 treble 
V:2 bass 
V:3 bass 
V:1
 z4 z2[Q:1/4=110] F2 | [DB]3 [DB] [DB]2 [DF]2 | G2 B2 F2 F2 | F3 B [=Ed]2 .[CEc]2 | %4
 [CFA]3 [=EG] [A,F]2 [B,DF]2 | [B,EG]3 [B,EG] [=B,FG]2 [B,FG]2 | [=Ec]3 [CEB] [CFB]2 [DF]2 | %7
 [DG]2 [B,DB]2 [G,B,D]2 [G,B,=E]2 |[M:3/4] F4 z2 |[M:1/4] F2 |[M:4/4] [DB]3- [DB]/[DB]/ [DB]2 B2 | %11
 d3- d/c/ B2 .[B,DB]2 | [B,EG]2 [B,GB]2 [B,FA]2 [B,EG]2 | [DF]4 z4 | [B,EG]3 [B,FA] [EGB]2 [Gc]2 | %15
 z4 z2 B2 | B3 d [Bf]2 [FBd]2 |[M:7/8] B2 z z z z2 |] %18
V:2
 z4 z2 F,2 | [B,,F,]3 [B,,F,] [B,,F,]2 [B,,B,]2 | [E,B,E]2 [G,B,E]2 [B,D]2 [A,CE]2 | %3
 [B,D]3 [G,B,D] [C,G,]2 z[K:treble] B | F,4 z4 | E,3 E, D,2 E,2 | [C,G,]3 C, F,2 D,2 | %7
 B,,2 G,,2 C,2 C,2 |[M:3/4] z2 A,2 [F,B,D]2 |[M:1/4] [F,A,E]2 | %10
[M:4/4] [B,,B,]3- [B,,B,]/[B,,B,]/ [B,,B,]2[K:treble] [B,DF]2 | %11
 [B,DF]3- [B,DF]/[B,EF]/ [B,DF]2[K:bass] z A | E,2 E,2 E,2 E,2 | z2 z C B,,2 B,,2 | %14
 E,3 E, E,2 [E,G,]2 | [D,A,]3 [D,D] [G,DG]2 .[^F,B,=E]2 | [F,DF]3 [F,B,F] [F,D]2 F,2 | %17
[M:7/8] F,2 F,,2 B,,3 |] %18
V:3
 x8 | x8 | x8 | z4 z2 C,2[K:treble] | z2 z B, F,2 B,,2 | x8 | x8 | x8 |[M:3/4] F,,4 z2 | %9
[M:1/4] x2 |[M:4/4] x6[K:treble] x2 | z4 z2[K:bass] B,,2 | x8 | B,,4 z4 | x8 | x8 | x8 | %17
[M:7/8] x7 |] %18
V:4
 x8 | x8 | x8 | x8 | x8 | x8 | x8 | x8 |[M:3/4] [F,A,]2 C2 F2 |[M:1/4] x2 |[M:4/4] x8 | x8 | x8 | %13
 B,3- [B,E] [F,B,D]2 [B,DF]2 | x8 | [^Fd]3 [Fc] B2 z C | x8 |[M:7/8] [Ec]2- [EAc]2 [DB]3 |] %18

